src/assets/icons/diy.svg

<svg width="24" height="24" viewBox="0 0 24 24" fill="none" xmlns="http://www.w3.org/2000/svg">
<g clip-path="url(#clip0_4772_105026)">
<path fill-rule="evenodd" clip-rule="evenodd" d="M5 1C3.89543 1 3 1.89543 3 3V21C3 22.1046 3.89543 23 5 23H19C20.1046 23 21 22.1046 21 21V3C21 1.89543 20.1046 1 19 1H5ZM8 5C7.44772 5 7 5.44772 7 6C7 6.55228 7.44772 7 8 7H16C16.5523 7 17 6.55228 17 6C17 5.44772 16.5523 5 16 5H8ZM7 10C7 9.44771 7.44772 9 8 9H16C16.5523 9 17 9.44771 17 10C17 10.5523 16.5523 11 16 11H8C7.44772 11 7 10.5523 7 10ZM12 19C12.5523 19 13 18.5523 13 18C13 17.4477 12.5523 17 12 17C11.4477 17 11 17.4477 11 18C11 18.5523 11.4477 19 12 19Z" fill="#F5F5F5"/>
</g>
<defs>
<clipPath id="clip0_4772_105026">
<rect width="24" height="24" fill="white"/>
</clipPath>
</defs>
</svg>

<svg width="24" height="24" fill="none" xmlns="http://www.w3.org/2000/svg"><g clip-path="url(#prefix__a)"><path fill-rule="evenodd" clip-rule="evenodd" d="M5 1a2 2 0 0 0-2 2v18a2 2 0 0 0 2 2h14a2 2 0 0 0 2-2V3a2 2 0 0 0-2-2zm3 4a1 1 0 0 0 0 2h8a1 1 0 1 0 0-2zm-1 5a1 1 0 0 1 1-1h8a1 1 0 1 1 0 2H8a1 1 0 0 1-1-1m5 9a1 1 0 1 0 0-2 1 1 0 0 0 0 2" fill="#F5F5F5"/></g><defs><clipPath id="prefix__a"><path fill="#fff" d="M0 0h24v24H0z"/></clipPath></defs></svg>
